X:1
T:Killarney
T:Killarney
T:unknown
C:Traditional Irish
Z:Public Domain
L:1/8
M:4/4
K:C
V:1 treble nm="Electric Piano"
%%MIDI program 4
V:1
"F" c3 A"Bb" G2 (3FDC |"F" F2 F2 F4 | c3 _B A2 (3GAc |"Bb" d2 G2"C7" G4 |"F" c3 A"Bb" G2 (3FDC | %5
w: By Kil- lar- neys * *|lakes and fells|Em- rald Isles and * *|wind- ing bays|moun- tain paths and * *|
w: No place else can * *|charm the eye|with such bright and * *|var- ied tints|ev- ry rock that * *|
"F" F2 F2 F4 | A3 _B c2 F_B |"C7" G3 F"F" F4 |"Dm" F3 F"Gm" G2 D2 |"Bb" F2 F2"F" A2 c2 | %10
w: wood- land dells|Mem- ry ev * er|fond- ly strays|Boun- teous na- ture|loves all lands *|
w: you pass by|verdue- re broid- * ers|or be- sprints|vir- gin there the|green grass grows *|
 A3 A"Bb" c_BAG |"G7" FDDF"C7" G4 |"Bb" d2 G2"F" c2 F2 |"C" _B2 E2"Dm" A2 F2 |"C" E3 F G2 (3ABc | %15
w: beau- ty wan * ders *|ev * ry * where|foot- prints leave on|ma- ny strands *|but her home is * *|
w: ev- ry morn * Springs's *|na * tal * day|Bright hued ber- ries|daff the snows *|Smi- ling win- ters frown *|
"G7" E2 DC"C7" C4 |"F" F3 D"Bb" C2 D2 |"F" F2 F2"C" G4 |"Gm" _B2 _B2"C7" A2 G2 |"F" cAGF"Bb" D4 | %20
w: sure- ly * there!|an- gels fold their|wings and rest|in that E- den|of * the * west|
w: a * * way|an- gels of- ten|paus- ing there|doubt if E- den|were * more * fair|
"F" F3 D"Bb" C2 D2 |"F7" F2 Ac"Bb" d4 |"F" F3 G A2 fA |"C7" G4"F" F4 :| %24
w: beau- ty's home Kil-|lar * * ney|heav- en's re- flex Kil-|lar- ney|
w: beau- ty's home Kil-|lar * * ney|heav- en's re- flex Kil-|lar- ney.|

